static/icons/calendar.svg

<svg width="18" height="20" viewBox="0 0 18 20" fill="none" xmlns="http://www.w3.org/2000/svg">
<path fill-rule="evenodd" clip-rule="evenodd" d="M15 2H14V1C14 0.734784 13.8946 0.48043 13.7071 0.292893C13.5196 0.105357 13.2652 0 13 0C12.7348 0 12.4804 0.105357 12.2929 0.292893C12.1054 0.48043 12 0.734784 12 1V2H6V1C6 0.734784 5.89464 0.48043 5.70711 0.292893C5.51957 0.105357 5.26522 0 5 0C4.73478 0 4.48043 0.105357 4.29289 0.292893C4.10536 0.48043 4 0.734784 4 1V2H3C2.20435 2 1.44129 2.31607 0.87868 2.87868C0.316071 3.44129 0 4.20435 0 5V17C0 17.7956 0.316071 18.5587 0.87868 19.1213C1.44129 19.6839 2.20435 20 3 20H15C15.7956 20 16.5587 19.6839 17.1213 19.1213C17.6839 18.5587 18 17.7956 18 17V5C18 4.20435 17.6839 3.44129 17.1213 2.87868C16.5587 2.31607 15.7956 2 15 2ZM3 4H4V5C4 5.26522 4.10536 5.51957 4.29289 5.70711C4.48043 5.89464 4.73478 6 5 6C5.26522 6 5.51957 5.89464 5.70711 5.70711C5.89464 5.51957 6 5.26522 6 5V4H12V5C12 5.26522 12.1054 5.51957 12.2929 5.70711C12.4804 5.89464 12.7348 6 13 6C13.2652 6 13.5196 5.89464 13.7071 5.70711C13.8946 5.51957 14 5.26522 14 5V4H15C15.2652 4 15.5196 4.10536 15.7071 4.29289C15.8946 4.48043 16 4.73478 16 5V9H2V5C2 4.73478 2.10536 4.48043 2.29289 4.29289C2.48043 4.10536 2.73478 4 3 4ZM15.7071 17.7071C15.5196 17.8946 15.2652 18 15 18H3C2.73478 18 2.48043 17.8946 2.29289 17.7071C2.10536 17.5196 2 17.2652 2 17V11H16V17C16 17.2652 15.8946 17.5196 15.7071 17.7071ZM5 15C5.55228 15 6 14.5523 6 14C6 13.4477 5.55228 13 5 13C4.44772 13 4 13.4477 4 14C4 14.5523 4.44772 15 5 15ZM9 13H13C13.2652 13 13.5196 13.1054 13.7071 13.2929C13.8946 13.4804 14 13.7348 14 14C14 14.2652 13.8946 14.5196 13.7071 14.7071C13.5196 14.8946 13.2652 15 13 15H9C8.73478 15 8.48043 14.8946 8.29289 14.7071C8.10536 14.5196 8 14.2652 8 14C8 13.7348 8.10536 13.4804 8.29289 13.2929C8.48043 13.1054 8.73478 13 9 13Z" fill="black"/>
</svg>

<svg xmlns="http://www.w3.org/2000/svg" width="18" height="20" fill="none"><path fill="#000" fill-rule="evenodd" d="M15 2h-1V1a1 1 0 0 0-2 0v1H6V1a1 1 0 0 0-2 0v1H3a3 3 0 0 0-3 3v12a3 3 0 0 0 3 3h12a3 3 0 0 0 3-3V5a3 3 0 0 0-3-3ZM3 4h1v1a1 1 0 0 0 2 0V4h6v1a1 1 0 0 0 2 0V4h1a1 1 0 0 1 1 1v4H2V5a1 1 0 0 1 1-1Zm12.707 13.707A1 1 0 0 1 15 18H3a1 1 0 0 1-1-1v-6h14v6a1 1 0 0 1-.293.707ZM5 15a1 1 0 1 0 0-2 1 1 0 0 0 0 2Zm4-2h4a1 1 0 0 1 0 2H9a1 1 0 0 1 0-2Z" clip-rule="evenodd"/></svg>
